docs/troubleshooting/resources/open-file-icon.svg

<?xml version="1.0" encoding="UTF-8" standalone="no" ?>
<!DOCTYPE svg PUBLIC "-//W3C//DTD SVG 1.1//EN" "http://www.w3.org/Graphics/SVG/1.1/DTD/svg11.dtd">
<svg xmlns="http://www.w3.org/2000/svg"
  xmlns:xlink="http://www.w3.org/1999/xlink" version="1.1" width="1080" height="1080" viewBox="0 0 1080 1080" xml:space="preserve">
  <desc>Created with Fabric.js 5.2.4</desc>
  <defs>
  </defs>
  <g transform="matrix(1 0 0 1 540 540)" id="7dd07f0d-042e-48e2-816d-faf1bf67d0b2">
    <rect style="stroke: none; stroke-width: 1; stroke-dasharray: none; stroke-linecap: butt; stroke-dashoffset: 0; stroke-linejoin: miter; stroke-miterlimit: 4; fill: rgb(136,136,136); fill-rule: nonzero; opacity: 1;" vector-effect="non-scaling-stroke" x="-540" y="-540" rx="100" ry="100" width="1080" height="1080" />
  </g>
  <g transform="matrix(1 0 0 1 540 540)" id="12041f00-c582-4d0e-ad79-af36591fc423">
  </g>
  <g transform="matrix(1.71 0 0 1.71 545.97 555.55)">
    <g style="" vector-effect="non-scaling-stroke">
      <g transform="matrix(1 0 0 1 -54.86 18.28)">
        <path style="stroke: none; stroke-width: 1; stroke-dasharray: none; stroke-linecap: butt; stroke-dashoffset: 0; stroke-linejoin: miter; stroke-miterlimit: 4; fill: rgb(238,238,238); fill-rule: nonzero; opacity: 1;" vector-effect="non-scaling-stroke" transform=" translate(-201, -274.09)" d="M 392.857 292.354 L 374.583 292.354 C 371.91400000000004 292.354 369.72400000000005 293.209 368.02000000000004 294.92699999999996 C 366.302 296.635 365.44700000000006 298.82399999999996 365.44700000000006 301.48999999999995 L 365.44700000000006 392.85099999999994 C 365.44700000000006 405.41399999999993 360.97700000000003 416.16599999999994 352.03200000000004 425.11299999999994 C 343.08700000000005 434.05799999999994 332.331 438.52699999999993 319.76800000000003 438.52699999999993 L 82.224 438.52699999999993 C 69.662 438.52699999999993 58.907000000000004 434.05799999999994 49.96 425.11299999999994 C 41.015 416.1669999999999 36.543 405.41499999999996 36.543 392.85099999999994 L 36.543 155.31 C 36.543 142.748 41.013999999999996 131.997 49.96 123.051 C 58.907 114.104 69.662 109.63300000000001 82.224 109.63300000000001 L 283.218 109.63300000000001 C 285.887 109.63300000000001 288.077 108.77400000000002 289.788 107.06300000000002 C 291.499 105.35000000000002 292.354 103.16300000000001 292.354 100.49600000000001 L 292.354 82.221 C 292.354 79.559 291.49899999999997 77.36800000000001 289.788 75.658 C 288.077 73.94500000000001 285.887 73.09 283.218 73.09 L 82.224 73.09 C 59.57600000000001 73.09 40.208000000000006 81.132 24.122000000000007 97.215 C 8.042 113.297 0 132.665 0 155.313 L 0 392.855 C 0 415.502 8.042 434.87300000000005 24.123 450.95000000000005 C 40.209 467.03400000000005 59.577 475.08000000000004 82.225 475.08000000000004 L 319.76800000000003 475.08000000000004 C 342.415 475.08000000000004 361.785 467.03400000000005 377.869 450.95000000000005 C 393.954 434.87300000000005 401.99600000000004 415.50300000000004 401.99600000000004 392.855 L 401.99600000000004 301.497 C 401.99600000000004 298.82800000000003 401.14000000000004 296.63800000000003 399.422 294.927 C 397.709 293.209 395.519 292.354 392.857 292.354 z" stroke-linecap="round" />
      </g>
      <g transform="matrix(1 0 0 1 97.86 -61.29)">
        <path style="stroke: none; stroke-width: 1; stroke-dasharray: none; stroke-linecap: butt; stroke-dashoffset: 0; stroke-linejoin: miter; stroke-miterlimit: 4; fill: rgb(238,238,238); fill-rule: nonzero; opacity: 1;" vector-effect="non-scaling-stroke" transform=" translate(-353.6, -194.57)" d="M 506.199 41.971 C 502.582 38.354 498.29400000000004 36.547 493.349 36.547 L 347.171 36.547 C 342.223 36.547 337.938 38.354 334.324 41.971 C 330.707 45.586 328.896 49.869 328.896 54.818 C 328.896 59.766999999999996 330.707 64.051 334.324 67.66799999999999 L 384.571 117.916 L 198.424 304.067 C 196.518 305.97 195.568 308.16 195.568 310.63 C 195.568 313.109 196.52100000000002 315.298 198.424 317.201 L 230.972 349.745 C 232.875 351.648 235.065 352.597 237.53900000000002 352.597 C 240.01300000000003 352.597 242.204 351.649 244.10600000000002 349.745 L 430.254 163.597 L 480.505 213.845 C 484.11899999999997 217.462 488.403 219.271 493.352 219.271 C 498.30099999999993 219.271 502.585 217.462 506.203 213.845 C 509.82 210.22899999999998 511.62699999999995 205.947 511.62699999999995 200.998 L 511.62699999999995 54.818 C 511.626 49.866 509.813 45.586 506.199 41.971 z" stroke-linecap="round" />
      </g>
    </g>
  </g>
</svg>

<svg xmlns="http://www.w3.org/2000/svg" xmlns:xlink="http://www.w3.org/1999/xlink" version="1.1" id="Capa_1" x="0px" y="0px" width="512" height="512" viewBox="0 0 511.626 511.627" style="enable-background:new 0 0 511.626 511.627;" xml:space="preserve"><g><g>
	<g>
		<path d="M392.857,292.354h-18.274c-2.669,0-4.859,0.855-6.563,2.573c-1.718,1.708-2.573,3.897-2.573,6.563v91.361    c0,12.563-4.47,23.315-13.415,32.262c-8.945,8.945-19.701,13.414-32.264,13.414H82.224c-12.562,0-23.317-4.469-32.264-13.414    c-8.945-8.946-13.417-19.698-13.417-32.262V155.31c0-12.562,4.471-23.313,13.417-32.259c8.947-8.947,19.702-13.418,32.264-13.418    h200.994c2.669,0,4.859-0.859,6.57-2.57c1.711-1.713,2.566-3.9,2.566-6.567V82.221c0-2.662-0.855-4.853-2.566-6.563    c-1.711-1.713-3.901-2.568-6.57-2.568H82.224c-22.648,0-42.016,8.042-58.102,24.125C8.042,113.297,0,132.665,0,155.313v237.542    c0,22.647,8.042,42.018,24.123,58.095c16.086,16.084,35.454,24.13,58.102,24.13h237.543c22.647,0,42.017-8.046,58.101-24.13    c16.085-16.077,24.127-35.447,24.127-58.095v-91.358c0-2.669-0.856-4.859-2.574-6.57    C397.709,293.209,395.519,292.354,392.857,292.354z" data-original="#000000" class="active-path" style="fill:#EEEEEE" data-old_color="#000000"></path>
		<path d="M506.199,41.971c-3.617-3.617-7.905-5.424-12.85-5.424H347.171c-4.948,0-9.233,1.807-12.847,5.424    c-3.617,3.615-5.428,7.898-5.428,12.847s1.811,9.233,5.428,12.85l50.247,50.248L198.424,304.067    c-1.906,1.903-2.856,4.093-2.856,6.563c0,2.479,0.953,4.668,2.856,6.571l32.548,32.544c1.903,1.903,4.093,2.852,6.567,2.852    s4.665-0.948,6.567-2.852l186.148-186.148l50.251,50.248c3.614,3.617,7.898,5.426,12.847,5.426s9.233-1.809,12.851-5.426    c3.617-3.616,5.424-7.898,5.424-12.847V54.818C511.626,49.866,509.813,45.586,506.199,41.971z" data-original="#000000" class="active-path" style="fill:#EEEEEE" data-old_color="#000000"></path>
	</g>
</g></g> </svg>
